assets/images/depfin-services-interview/icon-rss.svg

<svg xmlns="http://www.w3.org/2000/svg" width="16" height="19"><path fill-rule="evenodd" fill="#FEE300" d="M13.141 5.781c-.637 0-1.22-.217-1.695-.573L5.643 8.583c.046.205.076.417.076.636 0 .354-.073.689-.189 1.002l5.86 3.443a2.85 2.85 0 0 1 1.704-.57c1.605 0 2.906 1.322 2.906 2.953C16 17.678 14.699 19 13.094 19c-1.605 0-2.906-1.322-2.906-2.953 0-.332.066-.646.165-.944L4.426 11.62a2.832 2.832 0 0 1-1.567.474A2.867 2.867 0 0 1 0 9.219a2.867 2.867 0 0 1 2.859-2.875 2.83 2.83 0 0 1 1.913.751l5.667-3.296a2.904 2.904 0 0 1-.158-.908c0-1.597 1.28-2.891 2.86-2.891C14.72 0 16 1.294 16 2.891c0 1.596-1.28 2.89-2.859 2.89z"/></svg>

<svg
        xmlns="http://www.w3.org/2000/svg"
        xmlns:xlink="http://www.w3.org/1999/xlink"
        width="16px" height="19px">
    <path fill-rule="evenodd"  fill="rgb(254, 227, 0)"
          d="M13.141,5.781 C12.504,5.781 11.921,5.564 11.446,5.208 L5.643,8.583 C5.689,8.788 5.719,9.000 5.719,9.219 C5.719,9.573 5.646,9.908 5.530,10.221 L11.390,13.664 C11.869,13.309 12.455,13.094 13.094,13.094 C14.699,13.094 16.000,14.416 16.000,16.047 C16.000,17.678 14.699,19.000 13.094,19.000 C11.489,19.000 10.188,17.678 10.188,16.047 C10.188,15.715 10.254,15.401 10.353,15.103 L4.426,11.620 C3.975,11.918 3.438,12.094 2.859,12.094 C1.280,12.094 -0.000,10.807 -0.000,9.219 C-0.000,7.631 1.280,6.344 2.859,6.344 C3.598,6.344 4.265,6.633 4.772,7.095 L10.439,3.799 C10.345,3.512 10.281,3.210 10.281,2.891 C10.281,1.294 11.561,-0.000 13.141,-0.000 C14.720,-0.000 16.000,1.294 16.000,2.891 C16.000,4.487 14.720,5.781 13.141,5.781 Z"/>
</svg>
